dist/img/icon/speaker.svg

<svg width="26" height="24" viewBox="0 0 26 24" fill="none" xmlns="http://www.w3.org/2000/svg">
<g clip-path="url(#clip0_9_255)">
<path d="M6.31459 5.91739V14.7782H1.83326C1.24254 14.7782 0.763855 14.2995 0.763855 13.7088V6.98679C0.763855 6.39607 1.24254 5.91739 1.83326 5.91739H6.31459Z" stroke="#F7F9FC" stroke-width="1.5"/>
<path d="M6.31458 5.91739C6.31458 5.91739 8.65709 5.96831 12.5477 5.91739C16.4383 5.86646 20.9909 3.40173 23.9547 0.886081C24.1075 0.753678 24.3315 0.723123 24.5251 0.804602C24.7084 0.896266 24.8306 1.07959 24.8408 1.28329V19.4327C24.8408 19.6364 24.7186 19.8197 24.5352 19.9113C24.3519 20.003 24.138 19.9826 23.9751 19.8502C22.0705 18.3531 17.3244 15.0023 12.731 14.8597C10.0422 14.7782 7.87285 14.7782 6.31458 14.7782V5.91739Z" stroke="#F7F9FC" stroke-width="1.5"/>
<path d="M5.56093 23.2316C4.97021 23.2316 4.49153 22.7529 4.49153 22.1622L3.96191 14.7884H8.66731L9.2071 22.1622C9.2071 22.7529 8.72842 23.2316 8.13769 23.2316H5.56093Z" stroke="#F7F9FC" stroke-width="1.5"/>
</g>
<defs>
<clipPath id="clip0_9_255">
<rect width="25.6053" height="24" fill="white"/>
</clipPath>
</defs>
</svg>

<svg width="26" height="24" viewBox="0 0 26 24" fill="none" xmlns="http://www.w3.org/2000/svg"><g clip-path="url(#clip0_9_255)" stroke="#F7F9FC" stroke-width="1.5"><path d="M6.315 5.917v8.861H1.833a1.07 1.07 0 01-1.07-1.07v-6.72c0-.59.48-1.07 1.07-1.07h4.482z"/><path d="M6.315 5.917s2.342.051 6.233 0c3.89-.05 8.443-2.515 11.407-5.03a.55.55 0 01.57-.082.57.57 0 01.316.478v18.15a.54.54 0 01-.306.478.512.512 0 01-.56-.06c-1.905-1.498-6.65-4.849-11.244-4.991-2.689-.082-4.858-.082-6.416-.082v-8.86z"/><path d="M5.56 23.232a1.07 1.07 0 01-1.068-1.07l-.53-7.374h4.705l.54 7.374c0 .59-.479 1.07-1.07 1.07H5.562z"/></g><defs><clipPath id="clip0_9_255"><rect width="25.605" height="24" fill="#fff"/></clipPath></defs></svg>
